X: 197
T: Wo shi rikeze ren
%%abc-version 2.0
%%abcx-abcm2ps-target-version 5.9.1 (29 Sep 2008)
%%abc-creator hum2abc beta
%%abcx-conversion-date 2013/10/02 07:44:28
%%abc-edited-by Helmut Schaffrath
%%humdrum-veritas 2612177160
%%humdrum-veritas-data 86560618
%%continueall 1
%%barnumbers 0
L: 1/8
M: 2/4
K: Eb
f e c e [I:setbarnb 1]| 
B2B2 | 
c e c B | 
G2G2 | 
c B c c/ B/ | 
G2B3/ G/ | 
F E C/ C/ C | 
E2E z | 
E/ F/ E/ F/ E G | 
E/ F/ E/ F/ E G | 
E/ F/ E/ F/ E C | 
E/ F/ E/ F/ E G | 
E/ F/ E/ F/ E G | 
E/ F/ E/ F/ E z | 
C EG2 | 
B cB2 | 
F B G F | 
E CE2 |]  



